icons/assets/dark/angular.svg

<svg width="48" height="48" viewBox="0 0 48 48" fill="none" xmlns="http://www.w3.org/2000/svg">
<path d="M13.5173 36.1911L10.2463 35.0026L8.00001 12.3083L24 8L40 12.3083L37.7537 35.0027L34.4827 36.1912M13.5173 36.1911L24 40L34.4827 36.1912M13.5173 36.1911L17.5954 27.1348M34.4827 36.1912L30.4046 27.1348M17.5954 27.1348L24 12.9119L30.4046 27.1348M17.5954 27.1348H30.4046" stroke="#62646A" stroke-width="3.5" stroke-linecap="round" stroke-linejoin="round"/>
</svg>

<svg width="48" height="48" fill="none" xmlns="http://www.w3.org/2000/svg"><path d="M13.517 36.191l-3.27-1.188L8 12.308 24 8l16 4.308-2.246 22.695-3.271 1.188m-20.966 0L24 40l10.483-3.809m-20.966 0l4.078-9.056m16.888 9.056l-4.078-9.056m-12.81 0L24 12.912l6.405 14.223m-12.81 0h12.81" stroke="#62646A" stroke-width="3.5" stroke-linecap="round" stroke-linejoin="round"/></svg>
